packages/design-assets/icons/16px/Tag.svg

<svg width="16" height="16" xmlns="http://www.w3.org/2000/svg"><path d="M13.572 8l-6-6H3.428L2 3.428v4.144l6 6L13.572 8zm2.128-.7c.4.4.4 1 0 1.4l-7 7c-.2.2-.4.3-.7.3-.3 0-.5-.1-.7-.3l-7-7C.1 8.5 0 8.3 0 8V3c0-.3.1-.5.3-.7l2-2c.2-.2.4-.3.7-.3h5c.3 0 .5.1.7.3l7 7zM5 6c-.6 0-1-.4-1-1s.4-1 1-1 1 .4 1 1-.4 1-1 1z" fill="#818F99" fill-rule="evenodd"/></svg>

<?xml version="1.0" encoding="UTF-8"?>
<svg width="16px" height="16px" viewBox="0 0 16 16" version="1.1" xmlns="http://www.w3.org/2000/svg" xmlns:xlink="http://www.w3.org/1999/xlink">
    <!-- Generator: Sketch 54.1 (76490) - https://sketchapp.com -->
    <title>Icons/16px/Tag</title>
    <desc>Created with Sketch.</desc>
    <g id="Icons/16px/Tag" stroke="none" stroke-width="1" fill="none" fill-rule="evenodd">
        <path d="M13.5715729,8 L7.57157288,2 L3.42842712,2 L2,3.42842712 L2,7.57157288 L8,13.5715729 L13.5715729,8 Z M15.7,7.3 C16.1,7.7 16.1,8.3 15.7,8.7 L8.7,15.7 C8.5,15.9 8.3,16 8,16 C7.7,16 7.5,15.9 7.3,15.7 L0.3,8.7 C0.1,8.5 0,8.3 0,8 L0,3 C0,2.7 0.1,2.5 0.3,2.3 L2.3,0.3 C2.5,0.1 2.7,0 3,0 L8,0 C8.3,0 8.5,0.1 8.7,0.3 L15.7,7.3 Z M5,6 C4.4,6 4,5.6 4,5 C4,4.4 4.4,4 5,4 C5.6,4 6,4.4 6,5 C6,5.6 5.6,6 5,6 Z" id="i-16-tag" fill="#818F99"></path>
    </g>
</svg>
